X: 266
P: Longways for as many as will
M: 3/8
L: 1/16
K: Cm
V: 1
|: g6 | a2g2((3fga) | g2c2d2 | e4d2 |\
f2e2d2 | g2fedc | de=B4 | Hc6 :|\
e6 | c6 | f2agfe | d3cB2 |
e2f2g2 | a2gfg2 | eff3e | edcdef |\
g6 | a2g2((3gfa) | g2c2d2 | e4d2 |\
f2e2d2 | g2fedc | d2=B4 | c6 |
g2a2b2 | =e4f2 | a2b2c'2 | ^f4g2 |\
g6 | agfedc | =Bcc2Bc | "^D.C."d6 |]
V: 2 clef=bass middle=d
|: z2c'2c2 | f2e2d2 | e4d2 | c2g4 |d2c2=B2 | c2d2e2 | f2g2G2 | c6 :|\
z2c'2c2 | z2agfe | d2B2=A2 | B2c2d2 | c2d2e2 | A2B2e2 | a2b2B2 | e4z2 | z2c'2c2 |
f2e2d2 | e4d2 | B2g4 | d2c2=B2 | c2d2e2 | f2g2G2 | c6 | =e4g2 | c'2c2f2 |\
^f4a2 | d'2d2g2 | z2z2g2 | f2=B4 | c2d2=B2 | c2fed2 | ((3edc)c'4 | f4f2 | g2c4 | "^D.C."g6 |]

